!!!OTL@@DE: R&auml;uberlied
!!!ONB: Nachbildung von "Gaudeamus igitur" (Um 1750)
!!!ODT: ~1750
!!!OMD: Nicht zu schnell
!!!LYR: Schiller, Friedrich von
!!!LDT: 1780
!!!OCL: Erk, Ludwig
!!!GCO: Deutscher Liederschatz, Band 1
**kern	**kern	**kern
*staff3	*staff2	*staff1
*Ipiano	*Ipiano	*Ivox
*>[A,A,B]	*>[A,A,B]	*>[A,A,B]
*>norep[A,B]	*>norep[A,B]	*>norep[A,B]
*>A	*>A	*>A
*clefF4	*clefG2	*clefG2
*k[b-e-]	*k[b-e-]	*k[b-e-]
*B-:	*B-:	*B-:
*M3/4	*M3/4	*M3/4
*MM72	*MM72	*MM72
4BB-\ 4F\	4d/ 4b-/	4b-\
=1	=1	=1
8.BB-\ 8.B-\L	8.d/ 8.f/L	8.f/
16BB-\ 16B-\Jk	16d/ 16f/Jk	16f/
4BB-\ 4B-\	4d/ 4f/	4f/
4BB-\ 4B-\	4d/ 4b-/	4b-\
=2	=2	=2
8.E-\ 8.B-\L	8.e-/ 8.g/L	8.g/
16E-\ 16B-\Jk	16e-/ 16g/Jk	16g/
4.E-\ 4.B-\	4.e-/ 4.g/	4.g/
8G\ 8B-\	8e-/ 8b-/	8b-\
=3	=3	=3
8.F\ 8.c\L	8.e-/ 8.a/L	8.a/
16F\ 16B-\Jk	16d/ 16b-/Jk	16b-\
4F\ 4A\	4e-/ 4cc/	4cc\
4F\ 4c\	4e-/ 4a/	4a/
=4	=4	=4
4B-\	(8d/ 8b-/L	(8b-\L
.	8f/) 8dd/J	8dd\J)
4BB-;/	4d;/ 4b-;/	4b-;\
=5:|!	=5:|!	=5:|!
*>B	*>B	*>B
8BB-/	8d/ 8f/ 8b-/	8b-\
=6	=6	=6
8.F\L	8.c/ 8.f/ 8.a/L	8a/
.	.	8b-\
16F\Jk	16d/ 16b-/Jk	.
4F\ 4A\	4f/ 4cc/	4cc\
4F\ 4A\	4f/ 4cc/	4cc\
=7	=7	=7
8.BB-\ 8.B-\L	8.f/ 8.dd/L	8.dd\
16D\ 16B-\Jk	16f/ 16b-/Jk	16b-\
4.F\ 4.A\	4.f/ 4.cc/	4.cc\
8BB-/	8d/ 8f/ 8b-/	8b-\
=8	=8	=8
8.F\L	8.c/ 8.f/ 8.a/L	8.a/
16F\ 16B-\Jk	16d/ 16b-/Jk	16b-\
4F\ 4A\	4f/ 4cc/	4cc\
4F\ 4A\	4f/ 4cc/	4cc\
=9	=9	=9
8.BB-\ 8.B-\L	8.f/ 8.dd/L	8.dd\
16D\ 16B-\Jk	16f/ 16b-/Jk	16b-\
4.F\ 4.A\	4.f/ 4.cc/	4.cc\
8E-\ 8A\	8f/ 8cc/	8cc\
=10	=10	=10
8D\ 8B-\L	8f/ 8b-/L	8b-\
8D\ 8B-\J	8f/ 8a/J	8a/
4E-\ 4B-\	4e-/ 4g/	4g/
*	*^	*
(8C\L	(8ee-/L	4g\	(8ee-\L
8E-\J)	8cc/J)	.	8cc\J)
*	*v	*v	*
=11	=11	=11
*met(C)	*met(C)	*met(C)
*M4/4	*M4/4	*M4/4
(4F\	4f/ 4b-/ (4dd/	(4dd\
4F#\)	4e-/ &(4a/&) 4cc/)	4cc\)
4.G;\	4.d;/ 4.b-;/	4.b-;\
8r	8r	8b-\
=12	=12	=12
*M3/4	*M3/4	*M3/4
8D\ 8B-\L	8f/ 8b-/L	8b-\
8D\ 8B-\J	8f/ 8a/J	8a/
4E-\ 4B-\	4e-/ 4g/	4g/
*	*^	*
(8C\L	8ee-/L	4g\	(8ee-\L
8E-\J)	8cc/J	.	8cc\J)
*	*v	*v	*
=13	=13	=13
*met(C)	*met(C)	*met(C)
*M4/4	*M4/4	*M4/4
(4F\	4f/ 4b-/ (4dd/	(4dd\
4FF/)	4e-/ 4f/ &(4a/&) 4cc/)	4cc\)
4BB-;/	4d;/ 4f;/ 4b-;/	4b-;\
==	==	==
*-	*-	*-
!!!ENC: Craig Stuart Sapp
!!!END: 2004/05/26/
!!!EFL: 032/651
